X:1
T:Title
%%score { ( 1 5 6 ) | ( 2 3 4 ) }
L:1/8
M:4/4
K:Ab
V:1 treble nm="Grand Piano"
V:5 treble 
V:6 treble 
V:2 bass 
V:3 bass 
V:4 bass 
V:1
 z4 z2[Q:1/4=84] E2 | [Ec]3 c [DB]A[CE]A | G4- GEGB | d6 z2 |[M:3/4] c6 |[M:1/4] E2 | %6
[M:4/4] [Ec]4 z4 | [Fd]6 z2 | c6 z2 |[M:3/4] [CA]6 |[M:1/4] [Ae]2 |[M:4/4] [Ge]3 [Gd] FGEd | %12
 c6 z2 | [Ge]3 [EGB] [E_G=A][E=GB][=D_Ac][A=d] | e6 z2 | [Ec]4 z4 | [Fd]6 z2 | c6 z2 | %18
[M:7/4] [CA]6 z2 z2 z4 |] %19
V:2
 z4 z2 E,2 | A,3- [A,E] z C z C | [E,B,D]6 z2 | z [E,G,][E,B,][E,A,] [E,G,][E,B,D][F,A,C][E,G,E] | %4
[M:3/4] [A,,A,]6 |[M:1/4] E,2 |[M:4/4] [A,,A,]2 z E [A,,A,]2 [A,,A,]2 | [D,A,]2 D,2 .D,2 z2 | %8
 z [E,A,][E,A,][E,A,] [E,A,][E,G,F][E,A,E][E,D] |[M:3/4] [A,,E,]6 |[M:1/4] [A,C]2 | %11
[M:4/4] [E,B,]3 [E,B,] [E,B,D][E,B,D][E,G,D][E,B,E] | E4 z2 [A,,CA]2 | %13
 [B,,B,]3 B,, B,,B,,B,,[B,,B,] | [E,B,]2 [D,B,]2 [C,A,]2 [B,,G,]2 | %15
 [A,,A,]2 z E [A,,A,]2 [A,,A,]2 | [D,A,]2 D,2 .D,2 z2 | %17
 z [E,A,][E,A,][E,A,] [E,A,][E,G,F][E,A,E][E,D] |[M:7/4] [A,,E,]6 z2 z2 z4 |] %19
V:3
 x8 | z4 E,2 A,2 | x8 | x8 |[M:3/4] x6 |[M:1/4] x2 |[M:4/4] z2 A,,2 z4 | x8 | x8 |[M:3/4] x6 | %10
[M:1/4] x2 |[M:4/4] x8 | A,6 z2 | x8 | x8 | z2 A,,2 z4 | x8 | x8 |[M:7/4] x14 |] %19
V:4
 x8 | A,,8 | x8 | x8 |[M:3/4] x6 |[M:1/4] x2 |[M:4/4] x8 | x8 | x8 |[M:3/4] x6 |[M:1/4] x2 | %11
[M:4/4] x8 | x8 | x8 | x8 | x8 | x8 | x8 |[M:7/4] x14 |] %19
V:5
 x8 | x8 | x8 | z EGF EGAB |[M:3/4] E-[E-A] [E-G][EF] E2 |[M:1/4] x2 | %6
[M:4/4] z2 z c [DB][CA][Ec][_Ge] | z2 A,2 A,FGA | z EF=E _EdcB |[M:3/4] x6 |[M:1/4] x2 | %11
[M:4/4] x8 | z AGF E2 e2 | x8 | G2 G2 A2 [Ed]2 | z2 z c [DB][CA][Ec][_Ge] | z2 A,2 A,FGA | %17
 z EF=E _EdcB |[M:7/4] x14 |] %19
V:6
 x8 | x8 | x8 | x8 |[M:3/4] x6 |[M:1/4] x2 |[M:4/4] z2 A,2 z4 | x8 | x8 |[M:3/4] x6 |[M:1/4] x2 | %11
[M:4/4] x8 | x8 | x8 | x8 | z2 A,2 z4 | x8 | x8 |[M:7/4] x14 |] %19

